static/logos/storybook-glyph-color.svg

<svg width="42" height="50" viewBox="0 0 42 50" fill="none" xmlns="http://www.w3.org/2000/svg">
<mask id="mask0_1_896" style="mask-type:alpha" maskUnits="userSpaceOnUse" x="0" y="0" width="41" height="50">
<path d="M1.5507 46.0734L0.00180023 4.80222C-0.0493538 3.43921 0.995764 2.28406 2.35709 2.19897L37.461 0.00498087C38.8467 -0.0816234 40.0403 0.971476 40.1269 2.35714C40.1301 2.40935 40.1318 2.46165 40.1318 2.51395V47.4861C40.1318 48.8745 39.0062 50 37.6179 50C37.5802 50 37.5426 49.9991 37.5051 49.9975L3.95001 48.4904C2.64318 48.4318 1.59976 47.3806 1.5507 46.0734Z" fill="white"/>
</mask>
<g mask="url(#mask0_1_896)">
<path d="M1.5507 46.0734L0.00180023 4.80222C-0.0493538 3.43921 0.995764 2.28406 2.35709 2.19897L37.461 0.00498087C38.8467 -0.0816234 40.0403 0.971476 40.1269 2.35714C40.1301 2.40935 40.1318 2.46165 40.1318 2.51395V47.4861C40.1318 48.8745 39.0062 50 37.6179 50C37.5802 50 37.5426 49.9991 37.5051 49.9975L3.95001 48.4904C2.64318 48.4318 1.59976 47.3806 1.5507 46.0734Z" fill="#FF4785"/>
<path d="M29.6331 6.1458L29.8729 0.37878L34.6938 0L34.9014 5.94733C34.9086 6.1543 34.7468 6.32795 34.5398 6.33519C34.4511 6.33828 34.3643 6.30986 34.2946 6.25499L32.4355 4.79049L30.2344 6.46014C30.0694 6.58531 29.8341 6.55301 29.709 6.38801C29.6564 6.31855 29.6295 6.2329 29.6331 6.1458Z" fill="white"/>
<path d="M23.4697 18.8461C23.4697 19.8241 30.0577 19.3554 30.9421 18.6684C30.9421 12.0081 27.3684 8.5083 20.8244 8.5083C14.2802 8.5083 10.6137 12.0626 10.6137 17.394C10.6137 26.6796 23.1449 26.8574 23.1449 31.9222C23.1449 33.344 22.4487 34.1881 20.9171 34.1881C18.9214 34.1881 18.1324 33.1689 18.2252 29.7035C18.2252 28.9516 10.6137 28.7172 10.3816 29.7035C9.79068 38.1015 15.0229 40.5237 21.01 40.5237C26.8115 40.5237 31.3599 37.4314 31.3599 31.8334C31.3599 21.8814 18.643 22.1479 18.643 17.2164C18.643 15.217 20.1281 14.9505 21.01 14.9505C21.9382 14.9505 23.609 15.1141 23.4697 18.8461Z" fill="white"/>
</g>
</svg>

<svg xmlns="http://www.w3.org/2000/svg" width="53.76" height="64" fill="none" viewBox="0 0 42 50"><mask id="a" width="41" height="50" x="0" y="0" maskUnits="userSpaceOnUse" style="mask-type:alpha"><path fill="#fff" d="M1.55 46.073.003 4.803a2.514 2.514 0 0 1 2.355-2.604L37.461.005a2.514 2.514 0 0 1 2.67 2.509v44.972a2.514 2.514 0 0 1-2.626 2.512L3.95 48.49a2.514 2.514 0 0 1-2.4-2.417Z"/></mask><g mask="url(#a)"><path fill="#FF4785" d="M1.55 46.073.003 4.803a2.514 2.514 0 0 1 2.355-2.604L37.461.005a2.514 2.514 0 0 1 2.67 2.509v44.972a2.514 2.514 0 0 1-2.626 2.512L3.95 48.49a2.514 2.514 0 0 1-2.4-2.417Z"/><path fill="#fff" d="m29.633 6.146.24-5.767L34.693 0l.208 5.947a.375.375 0 0 1-.606.308l-1.86-1.465-2.2 1.67a.375.375 0 0 1-.602-.314ZM23.47 18.846c0 .978 6.588.51 7.472-.178 0-6.66-3.574-10.16-10.118-10.16-6.544 0-10.21 3.555-10.21 8.886 0 9.286 12.53 9.463 12.53 14.528 0 1.422-.695 2.266-2.227 2.266-1.996 0-2.785-1.02-2.692-4.485 0-.751-7.611-.986-7.843 0-.591 8.399 4.64 10.82 10.628 10.82 5.801 0 10.35-3.092 10.35-8.69 0-9.952-12.717-9.685-12.717-14.617 0-1.999 1.485-2.266 2.367-2.266.928 0 2.599.164 2.46 3.896Z"/></g></svg>
